X:1
T:Velikaja ektenija
T:Velikaja ektenija
T:Moskva, 17. århundre
T:anon.
C:anon.
%%score [ 1 2 3 ]
L:1/8
M:none
K:F
V:1 treble-8 nm="Tenor"
V:2 treble-8 nm="Tenor"
V:3 bass nm="Baryton"
V:1
"^1" F4 F2 F2 F2 F4 !fermata!F8 |:"^2" (G4 B8 d8) d2 d2 c2 B4 !fermata!c8 :| %2
w: Gos- po- di po- mi- luj,|Gos- * * po- di po- mi- luj.|
"^3" c2 c4 (B2 A2) (B2 c2 d4) (c4 d3 c B4 !fermata!c8) || %3
w: Po- dai, Gos- * po- * * di. _ _ _ _|
"^4" c2 c4 (B2 A2) (B2 c2 d4) (c4 d3 c B4 !fermata!c8) ||"^5" c8 (B2 !fermata!c6) |] %5
w: Te- be Gos- * po- * * di. _ _ _ _|A- min. _|
V:2
 F4 F2 F2 F2 F4 !fermata!F8 |: (G4 B8 G8) G2 G2 G2 G4 !fermata!F8 :| %2
w: Gos- po- di po- mi- luj,|Gos- * * po- di po- mi- luj.|
 D2 F4 G4 (F4 E4) (F2 G2- G8 !fermata!F8) || D2 F4 G4 (F4 E4) (F2 G2- G8 !fermata!F8) || %4
w: Po- dai, Gos- po- * di. _ _ _|Te- be Gos- po- * di. _ _ _|
 (F6 E2) (E2 !fermata!F6) |] %5
w: A- * min. _|
V:3
 F,4 F,2 F,2 F,2 F,4 !fermata!F,8 |: (G,4 B,6 A,G, B,8) G,2 G,2 G,2 G,4 !fermata!F,8 :| %2
w: Gos- po- di po- mi- luj,|Gos- * * * * po- di po- mi- luj.|
 G,2 (B,2 A,2) (G,2 A,G,) (F,2 G,2 A,2 B,2) (A,2 G,2 B,3 A, G,4 !fermata!F,8) || %3
w: Po- dai, _ Gos- * * po- * * * di. _ _ _ _ _|
 G,2 (B,2 A,2) (G,2 A,G,) (F,2 G,2 A,2 B,2) (A,2 G,2 B,3 A, G,4 !fermata!F,8) || %4
w: Te- be _ Gos- * * po- * * * di. _ _ _ _ _|
 (F,2 G,2- G,4) (G,2 !fermata!A,6) |] %5
w: A- * * min. _|

